!!!SOCIAL_FUNCTION:	dance songs
!!!PDT:	1943
!!!OTL: No_51_Song_of_Dance_With_Wolf_Headdress_(b).krn
!!!REG: British Columbia
**kern	**kern
*staff2	*staff1
=1-	=1-
*clefF4	*clefF4
*k[]	*k[]
*M2/4	*M2/4
8GG/L	2e\
8GG/J	.
8GG/L	.
8GG/J	.
=2	=2
8GG/L	16e\LK
.	[8.d\J
8GG/J	.
4r	4d\]
=3	=3
2r	16d\LL
.	16c\JJ
.	8r
.	4A\
=4	=4
2r	8c\
.	8r
.	4A\
=5	=5
2r	4A\
.	4c\
=6||	=6||
*M3/4	*M3/4
2.r	4.d\
.	4r
.	16c\LL
.	16d\JJ
=7||	=7||
*M2/4	*M2/4
2r	2e\
=8	=8
2r	8f\L
.	8e\J
.	4e\
=9	=9
2r	8e\L
.	[8d\J
.	8d\L]
.	8c\J
=10	=10
2r	4e\
.	4e\
=11	=11
2r	16e\LK
.	[8.d\J
.	4d\]
=12	=12
2r	16d\LL
.	16c\JJ
.	8r
.	4A\
=13||	=13||
*M3/4	*M3/4
2.r	8c\
.	8r
.	4A\
.	8A\
.	8r
=14||	=14||
*M2/4	*M2/4
2r	2e\
=15	=15
2r	16e\LK
.	[8.d\J
.	4d\]
=16	=16
2r	16d\LL
.	16c\JJ
.	8r
.	4A\
=17||	=17||
*M3/4	*M3/4
2.r	8c\
.	8r
.	4A\
.	8A\
.	8r
=18||	=18||
*M2/4	*M2/4
2r	4d\
.	8d\L
.	8c\J
=19	=19
2r	4.d\
.	8d\
=20	=20
2r	8d\L
.	8c\J
.	4A\
=21	=21
2r	4d\
.	8d\L
.	8c\J
=22	=22
2r	8d\
.	8r
.	4A\
=23	=23
2r	8c\
.	8r
.	[4A\
=24	=24
2r	4A\]
.	4r
==	==
*-	*-
